packages/swarm-icons/src/icons/solid/Calendar.svg

<svg xmlns="http://www.w3.org/2000/svg" width="18" height="18" viewBox="0 0 18 18">
  <path fill="#A2A2A2" d="M2,5 C2,3.8954305 2.8954305,3 4,3 L5,3 C5,2.44771525 5.44771525,2 6,2 C6.55228475,2 7,2.44771525 7,3 L11,3 C11,2.44771525 11.4477153,2 12,2 C12.5522847,2 13,2.44771525 13,3 L14,3 C15.1045695,3 16,3.8954305 16,5 L16,14 C16,15.1045695 15.1045695,16 14,16 L4,16 C2.8954305,16 2,15.1045695 2,14 L2,5 Z M4,7 L4,14 L14,14 L14,7 L4,7 Z"/>
</svg>

<svg xmlns="http://www.w3.org/2000/svg" width="18" height="18"><path fill="#A2A2A2" d="M2 5a2 2 0 012-2h1a1 1 0 112 0h4a1 1 0 012 0h1a2 2 0 012 2v9a2 2 0 01-2 2H4a2 2 0 01-2-2V5zm2 2v7h10V7H4z"/></svg>
